src/assets/images/icons/opencollective-img.svg

<svg width="64" height="64" viewBox="0 0 64 64" fill="none" xmlns="http://www.w3.org/2000/svg">
<path fill-rule="evenodd" clip-rule="evenodd" d="M52.4016 31.916C52.4016 35.946 51.2316 39.811 49.2236 43.003L57.4196 51.233C61.4336 45.858 63.9426 39.139 63.9426 31.915C63.9426 24.691 61.4326 17.973 57.4196 12.597L49.2236 20.827C51.2306 24.019 52.4016 27.714 52.4016 31.914V31.916Z" fill="#B8D3F4"/>
<path fill-rule="evenodd" clip-rule="evenodd" d="M32.0036 52.41C20.7966 52.41 11.5976 43.17 11.5976 31.917C11.5976 20.664 20.7976 11.424 32.0036 11.424C36.1856 11.424 39.8636 12.6 43.0436 14.784L51.2396 6.554C45.8866 2.52 39.1966 0 32.0036 0C14.4396 0 0.0566406 14.278 0.0566406 32.084C0.0566406 49.89 14.4396 64 32.0036 64C39.3636 64 46.0536 61.48 51.4066 57.45L43.2106 49.22C40.0326 51.236 36.1856 52.412 32.0036 52.412V52.41Z" fill="#3385FF"/>
</svg>

<svg width="64" height="64" fill="none" xmlns="http://www.w3.org/2000/svg"><path fill-rule="evenodd" clip-rule="evenodd" d="M52.402 31.916c0 4.03-1.17 7.895-3.178 11.087l8.196 8.23c4.014-5.375 6.523-12.094 6.523-19.318 0-7.224-2.51-13.942-6.523-19.318l-8.196 8.23c2.007 3.192 3.178 6.887 3.178 11.087v.002Z" fill="#B8D3F4"/><path fill-rule="evenodd" clip-rule="evenodd" d="M32.004 52.41c-11.207 0-20.406-9.24-20.406-20.493 0-11.253 9.2-20.493 20.406-20.493 4.182 0 7.86 1.176 11.04 3.36l8.196-8.23C45.887 2.52 39.197 0 32.004 0 14.44 0 .057 14.278.057 32.084.057 49.89 14.44 64 32.004 64c7.36 0 14.05-2.52 19.403-6.55l-8.196-8.23c-3.178 2.016-7.025 3.192-11.207 3.192v-.002Z" fill="#3385FF"/></svg>
